src/assets/icons/icons/svgmap/nachrichten.svg

<svg xmlns="http://www.w3.org/2000/svg" xml:space="preserve" viewBox="0 0 50 36">
  <path d="M19.947 21.153h13.556v.943H19.947v-.943zm13.554-2.827H19.947v.943h13.556l-.002-.943zm0-5.658h-6.014v.943h6.014v-.943zm0 2.829h-6.014v.943h6.014v-.943zM16.176 7.955V24.17c0 .727-1.543.727-1.543 0V10.001h-1.885v14.905c0 1.051.853 1.904 1.904 1.904h20.715c1.053 0 1.906-.852 1.906-1.904V7.955H16.176zm19.212 16.819H18.061V9.991h17.327v14.783zm-9.785-12.106h-5.656v3.771h5.656v-3.771z"/>
</svg>

<?xml version="1.0" encoding="utf-8"?>
<!-- Generator: Adobe Illustrator 19.2.0, SVG Export Plug-In . SVG Version: 6.00 Build 0)  -->
<svg version="1.1" id="Ebene_2_1_" xmlns="http://www.w3.org/2000/svg" xmlns:xlink="http://www.w3.org/1999/xlink" x="0px" y="0px"
	 viewBox="0 0 50 36" style="enable-background:new 0 0 50 36;" xml:space="preserve">
<path d="M19.947,21.153h13.556v0.943H19.947V21.153z M33.501,18.326H19.947v0.943h13.556L33.501,18.326
	L33.501,18.326z M33.501,12.668h-6.014v0.943h6.014V12.668z M33.501,15.497h-6.014v0.943h6.014V15.497z M16.176,7.955V24.17
	c0,0.727-1.543,0.727-1.543,0V10.001h-1.885v14.905c0,1.051,0.853,1.904,1.904,1.904h20.715c1.053,0,1.906-0.852,1.906-1.904V7.955
	H16.176z M35.388,24.774H18.061V9.991h17.327V24.774z M25.603,12.668h-5.656v3.771h5.656V12.668z"/>
</svg>
